src/lib/packages/icons/src/assets/line/face-diagonal-mouth.svg

<svg xmlns="http://www.w3.org/2000/svg" width="24" height="24" fill="none"><path fill="currentColor" d="M12 22.75C6.07 22.75 1.25 17.93 1.25 12S6.07 1.25 12 1.25 22.75 6.07 22.75 12 17.93 22.75 12 22.75Zm0-20C6.9 2.75 2.75 6.9 2.75 12S6.9 21.25 12 21.25s9.25-4.15 9.25-9.25S17.1 2.75 12 2.75ZM16.25 10c0-1.01-.53-1.75-1.25-1.75s-1.25.74-1.25 1.75.53 1.75 1.25 1.75 1.25-.74 1.25-1.75Zm-6 0c0-1.01-.53-1.75-1.25-1.75S7.75 8.99 7.75 10s.53 1.75 1.25 1.75 1.25-.74 1.25-1.75Zm-1.13 6.74 6-1c.41-.07.68-.45.62-.86a.753.753 0 0 0-.86-.62l-6 1A.75.75 0 0 0 9 16.75c.04 0 .08 0 .12-.01Z"/></svg>

<svg width="24" height="24" viewBox="0 0 24 24" fill="none" xmlns="http://www.w3.org/2000/svg">
<path d="M12 22.75C6.07 22.75 1.25 17.93 1.25 12C1.25 6.07 6.07 1.25 12 1.25C17.93 1.25 22.75 6.07 22.75 12C22.75 17.93 17.93 22.75 12 22.75ZM12 2.75C6.9 2.75 2.75 6.9 2.75 12C2.75 17.1 6.9 21.25 12 21.25C17.1 21.25 21.25 17.1 21.25 12C21.25 6.9 17.1 2.75 12 2.75ZM16.25 10C16.25 8.99 15.72 8.25 15 8.25C14.28 8.25 13.75 8.99 13.75 10C13.75 11.01 14.28 11.75 15 11.75C15.72 11.75 16.25 11.01 16.25 10ZM10.25 10C10.25 8.99 9.72 8.25 9 8.25C8.28 8.25 7.75 8.99 7.75 10C7.75 11.01 8.28 11.75 9 11.75C9.72 11.75 10.25 11.01 10.25 10ZM9.12 16.74L15.12 15.74C15.53 15.67 15.8 15.29 15.74 14.88C15.67 14.47 15.28 14.19 14.88 14.26L8.88 15.26C8.47001 15.33 8.20001 15.71 8.26001 16.12C8.32001 16.49 8.64 16.75 9 16.75C9.04 16.75 9.08 16.75 9.12 16.74Z" fill="currentColor"/>
</svg>
